X:1
T:Angel Choir, 87.87
T:Angel Choir, 87.87
T:John Henry Gower, 1895
T:Public Domain Courtesy of the Cyber Hymnal™
C:John Henry Gower, 1895
Z:Public Domain
Z:Courtesy of the Cyber Hymnal™
%%score ( 1 2 ) ( 3 4 )
L:1/8
Q:1/4=112
M:4/4
K:G
V:1 treble 
V:2 treble 
V:3 bass 
V:4 bass 
V:1
 G2 FE D2 (EF) | G2 A2 (Bc) d2 | [Gd]3 [Ge] [Gd]2 [GB]2 | [Fc]2 [GB]2 [FA]4 | G2 (FE) D2 EF | %5
 G2 A2 Bc d2 | [Gd]3 [Ge] [Gd]2 [Gc]2 | [GB]2 [FA]2 [DG]4 |] %8
V:2
 G2 (FE) D2 EF | G2 A2 Bc d2 | x8 | x8 | G2 FE D2 (EF) | G2 A2 (Bc) d2 | x8 | x8 |] %8
V:3
 G,2 (F,E,) D,2 E,F, | G,2 A,2 B,C D2 | [B,D]3 C [B,D]2 [G,D]2 | [A,D]2 [G,D]2 [D,D]4 | %4
 G,2 (F,E,) D,2 E,F, | G,2 A,2 B,C D2 | [B,D]3 C [B,D]2 [A,E]2 | [D,D]2 [D,C]2 [G,,B,]4 |] %8
V:4
 G,2 F,E, D,2 (E,F,) | G,2 A,2 (B,C) D2 | x3 C x4 | x8 | G,2 F,E, D,2 (E,F,) | G,2 A,2 (B,C) D2 | %6
 x3 C x4 | x8 |] %8

